Origami/22x22/apps/electrum.svg

<svg width="22" height="22" version="1.1" viewBox="0 0 22 22" xmlns="http://www.w3.org/2000/svg">
 <g transform="translate(-1,-1)">
  <circle cx="12" cy="12" r="10" style="fill:#cccccc"/>
  <path d="m12 2a10 10 0 0 0 -10 10 10 10 0 0 0 0.01075 0.291 10 10 0 0 1 9.989 -9.791 10 10 0 0 1 9.9895 9.709 10 10 0 0 0 0.01074 -0.20895 10 10 0 0 0 -10 -10z" style="fill:#ffffff;opacity:.2"/>
  <path d="M 21.9895,12.2 A 10,10 0 0 1 12,22 10,10 0 0 1 2.011,12.25 10,10 0 0 0 2,12.5 a 10,10 0 0 0 10,10 10,10 0 0 0 10,-10 10,10 0 0 0 -0.01075,-0.29105 z" style="opacity:.2"/>
  <ellipse cx="12" cy="12" rx="8.5" ry="5.5" style="fill:none;stroke-width:1.019259;stroke:#1488c4"/>
  <ellipse transform="rotate(-60)" cx="-4.392" cy="16.392" rx="8.5" ry="5.5" style="fill:none;stroke-width:1.019259;stroke:#1488c4"/>
  <ellipse transform="matrix(-.5 -.8660254 -.8660254 .5 0 0)" cx="-16.392" cy="-4.392" rx="8.5" ry="5.5" style="fill:none;stroke-width:1.019259;stroke:#1488c4"/>
  <path d="m10 8v1h-1v1h1v4h-1v1h1v1h1v-1h1v1h1v-1h1c0.554 0 1-0.446 1-1v-2c0-0.554-0.446-1-1-1v-1c0-0.554-0.446-1-1-1v-1h-1v1h-1v-1zm1 2h2v1h-2zm0 2h3v2h-3z" style="fill:#1488c4"/>
 </g>
</svg>

<svg xmlns="http://www.w3.org/2000/svg" width="22" height="22" version="1.1" viewBox="0 0 22 22">
 <g transform="translate(-1,-1)">
  <circle style="fill:#cccccc" cx="12" cy="12" r="10"/>
  <path style="opacity:0.2;fill:#ffffff" d="m 12,2 a 10,10 0 0 0 -10,10 10,10 0 0 0 0.01075,0.291 10,10 0 0 1 9.989,-9.791 10,10 0 0 1 9.9895,9.709 10,10 0 0 0 0.01074,-0.20895 10,10 0 0 0 -10,-10 z"/>
  <path style="opacity:0.2" d="M 21.9895,12.2 A 10,10 0 0 1 12,22 10,10 0 0 1 2.011,12.25 10,10 0 0 0 2,12.5 a 10,10 0 0 0 10,10 10,10 0 0 0 10,-10 10,10 0 0 0 -0.01075,-0.29105 z"/>
  <ellipse style="fill:none;stroke:#1488c4;stroke-width:1.01925898" cx="12" cy="12" rx="8.5" ry="5.5"/>
  <ellipse style="fill:none;stroke:#1488c4;stroke-width:1.01925898" cx="-4.392" cy="16.392" rx="8.5" ry="5.5" transform="rotate(-60)"/>
  <ellipse style="fill:none;stroke:#1488c4;stroke-width:1.01925898" cx="-16.392" cy="-4.392" rx="8.5" ry="5.5" transform="matrix(-0.5,-0.8660254,-0.8660254,0.5,0,0)"/>
  <path style="fill:#1488c4" d="M 10,8 V 9 H 9 v 1 h 1 v 4 H 9 v 1 h 1 v 1 h 1 v -1 h 1 v 1 h 1 v -1 h 1 c 0.554,0 1,-0.446 1,-1 v -2 c 0,-0.554 -0.446,-1 -1,-1 V 10 C 14,9.446 13.554,9 13,9 V 8 H 12 V 9 H 11 V 8 Z m 1,2 h 2 v 1 h -2 z m 0,2 h 3 v 2 h -3 z"/>
 </g>
</svg>
